X:1
T:Now, Moses!
M:6/8
L:1/8
K:A
 d| cEE FFF| EEE FAd| cEE FFF| EEA B2 d| cEE FFF| EEE FAf| ecA FGA|\
 EFG A2 c| cde EEd| cde AAc| dcB cBA| Bc^d e2 =d| cEE FFF| EEE FAf|\
 ecA FGA| EFG A2 E| AcE AcE| BdE BdE| Ac e/2e/2 ABc| B3- B2 d| cEE FFF|\
 EEE FAf| ecA FGA| EFG A2||
